packages/core/src/svgs/tokens/branded/MNST.svg

<svg width="24" height="24" viewBox="0 0 24 24" fill="none" xmlns="http://www.w3.org/2000/svg">
<path d="M17.7688 17.9735C17.1564 18.2985 16.4939 18.5485 15.7939 18.6984C16.0065 17.961 16.119 17.1798 16.119 16.3736C16.119 11.8863 12.6191 8.24898 8.30684 8.24898C7.75687 8.24898 7.2194 8.31149 6.70068 8.42398C7.66312 5.06165 10.6505 2.62427 14.1878 2.62427C18.5001 2.62427 22 6.26158 22 10.7488C22 12.7738 21.2875 14.6237 20.1063 16.0486C19.8266 15.8452 19.4872 15.7403 19.1416 15.7505C18.7959 15.7606 18.4634 15.8851 18.1961 16.1046C17.9288 16.3241 17.7418 16.6259 17.6644 16.9629C17.5871 17.3001 17.6239 17.6533 17.7688 17.9672V17.9735Z" fill="#C5E2E6"/>
<path d="M19.35 4.65542L13.6004 10.4051C12.7014 9.53381 11.6015 8.8973 10.3982 8.55178C9.19483 8.20626 7.925 8.16236 6.70068 8.42398C7.66312 5.06165 10.6505 2.62427 14.1878 2.62427C16.169 2.62427 17.9752 3.39298 19.35 4.65542Z" fill="#A8D3D9"/>
<path d="M13.5614 8.8739C14.7696 8.8739 15.7488 7.89457 15.7488 6.68651C15.7488 5.47845 14.7696 4.49911 13.5614 4.49911C12.3534 4.49911 11.374 5.47845 11.374 6.68651C11.374 7.89457 12.3534 8.8739 13.5614 8.8739Z" fill="#8EBAC3"/>
<path d="M9.18787 7.62402C9.7057 7.62402 10.1254 7.2043 10.1254 6.68656C10.1254 6.16882 9.7057 5.74911 9.18787 5.74911C8.6702 5.74911 8.25049 6.16882 8.25049 6.68656C8.25049 7.2043 8.6702 7.62402 9.18787 7.62402Z" fill="#8EBAC3"/>
<path d="M17.625 10.7488C18.3154 10.7488 18.8749 10.1893 18.8749 9.49894C18.8749 8.80858 18.3154 8.24896 17.625 8.24896C16.9347 8.24896 16.375 8.80858 16.375 9.49894C16.375 10.1893 16.9347 10.7488 17.625 10.7488Z" fill="#A8D3D9"/>
<path d="M17 13.8738C17.3452 13.8738 17.625 13.5939 17.625 13.2488C17.625 12.9036 17.3452 12.6237 17 12.6237C16.6548 12.6237 16.375 12.9036 16.375 13.2488C16.375 13.5939 16.6548 13.8738 17 13.8738Z" fill="#A8D3D9"/>
<path d="M11.9432 20.6233C12.7611 20.1062 13.4344 19.39 13.9 18.5419C14.3656 17.6936 14.6084 16.7413 14.6057 15.7736C14.6122 15.0316 14.4725 14.2958 14.1947 13.6077C13.9169 12.9197 13.5063 12.2933 12.9863 11.7639C12.4663 11.2347 11.8471 10.813 11.1642 10.5231C10.4813 10.233 9.74777 10.0804 9.0059 10.0739C7.58097 10.0739 6.14355 10.7926 5.0061 11.88C5.60608 12.2551 6.36229 12.7738 6.63101 13.0425C5.79899 13.1482 5.02069 13.5111 4.40454 14.0801C3.78841 14.6492 3.36514 15.3963 3.19369 16.2173C3.71866 16.0986 4.8936 15.986 5.34359 16.4611C4.97485 17.0548 3.78741 18.8235 2 21.1421C3.04995 21.4545 5.65607 21.4983 7.69972 19.1109C7.84971 19.4735 7.96846 20.4234 7.24974 21.3171C8.1122 21.5171 10.1434 21.3171 11.4058 18.9171C11.4996 19.3047 11.6932 20.0171 11.9432 20.6296V20.6233Z" fill="#FF3E87"/>
</svg>

<svg xmlns="http://www.w3.org/2000/svg" width="24" height="24" fill="none" viewBox="0 0 24 24">
    <path fill="#C5E2E6" d="M17.769 17.974a7.6 7.6 0 0 1-1.975.724 8.4 8.4 0 0 0 .325-2.324c0-4.488-3.5-8.125-7.812-8.125-.55 0-1.088.062-1.606.175.962-3.362 3.95-5.8 7.487-5.8C18.5 2.624 22 6.262 22 10.75a8.28 8.28 0 0 1-1.894 5.3 1.562 1.562 0 0 0-2.337 1.918z"/>
    <path fill="#A8D3D9" d="m19.35 4.655-5.75 5.75a7.63 7.63 0 0 0-6.9-1.981c.963-3.362 3.95-5.8 7.488-5.8 1.981 0 3.787.769 5.162 2.031"/>
    <path fill="#8EBAC3" d="M13.561 8.874a2.187 2.187 0 1 0 0-4.375 2.187 2.187 0 0 0 0 4.375m-4.373-1.25a.937.937 0 1 0 0-1.875.937.937 0 0 0 0 1.875"/>
    <path fill="#A8D3D9" d="M17.625 10.749a1.25 1.25 0 1 0 0-2.5 1.25 1.25 0 0 0 0 2.5M17 13.874a.625.625 0 1 0 0-1.25.625.625 0 0 0 0 1.25"/>
    <path fill="#FF3E87" d="M11.943 20.623a5.72 5.72 0 0 0 2.663-4.85 5.653 5.653 0 0 0-5.6-5.7c-1.425 0-2.862.72-4 1.807.6.375 1.356.894 1.625 1.162a4.03 4.03 0 0 0-3.437 3.175c.525-.118 1.7-.231 2.15.244-.37.594-1.557 2.363-3.344 4.681 1.05.313 3.656.356 5.7-2.031.15.363.268 1.312-.45 2.206.862.2 2.893 0 4.156-2.4.094.388.287 1.1.537 1.713z"/>
</svg>
